public/assets/icons/structure.svg

<?xml version="1.0" standalone="no"?>
<!DOCTYPE svg PUBLIC "-//W3C//DTD SVG 1.1//EN" "http://www.w3.org/Graphics/SVG/1.1/DTD/svg11.dtd" >
<svg xmlns="http://www.w3.org/2000/svg" xmlns:xlink="http://www.w3.org/1999/xlink" version="1.1" viewBox="0 -64 1024 1024" width="512" height="512">
  <g transform="matrix(1 0 0 -1 0 960)">
   <path fill="currentColor"
d="M512 838l390 -390l-390 -390l-390 390zM512 155l293 293l-293 293l-293 -293zM512 653l-34 -34v-342l34 -34l34 34v342zM717 448l-34 34h-342l-34 -34l34 -34h342z" />
  </g>

</svg>

<?xml version="1.0" encoding="UTF-8" standalone="no"?>
<svg
   version="1.1"
   viewBox="0 -64 1024 1024"
   width="512"
   height="512"
   id="svg773"
   sodipodi:docname="structure.svg"
   inkscape:version="1.2.2 (732a01da63, 2022-12-09)"
   xmlns:inkscape="http://www.inkscape.org/namespaces/inkscape"
   xmlns:sodipodi="http://sodipodi.sourceforge.net/DTD/sodipodi-0.dtd"
   xmlns="http://www.w3.org/2000/svg"
   xmlns:svg="http://www.w3.org/2000/svg">
  <defs
     id="defs777" />
  <sodipodi:namedview
     id="namedview775"
     pagecolor="#ffffff"
     bordercolor="#000000"
     borderopacity="0.25"
     inkscape:showpageshadow="2"
     inkscape:pageopacity="0.0"
     inkscape:pagecheckerboard="0"
     inkscape:deskcolor="#d1d1d1"
     showgrid="false"
     inkscape:zoom="1.6191406"
     inkscape:cx="236.23643"
     inkscape:cy="256.30881"
     inkscape:window-width="1920"
     inkscape:window-height="1009"
     inkscape:window-x="-8"
     inkscape:window-y="-8"
     inkscape:window-maximized="1"
     inkscape:current-layer="svg773" />
  <g
     transform="matrix(1,0,0,-1,0,896)"
     id="g771">
    <path
       fill="currentColor"
       d="M 512,838 902,448 512,58 122,448 Z M 512,155 805,448 512,741 219,448 Z m 0,498 -34,-34 V 277 l 34,-34 34,34 V 619 Z M 717,448 683,482 H 341 l -34,-34 34,-34 h 342 z"
       id="path769" />
  </g>
</svg>
